X: 4814
T: Winds of Change
C: Seonaid Lynn
R: strathspey
B: RSCDS 48-14
Z: 2015 by John Chambers <jc:trillian.mit.edu>
N: Tune for the dance Farewell to Helensburgh
M: 4/4
L: 1/8
K: D
A |\
"D"d>c B<d "F#m"c2 A2 | "G"B>A G<B "F#m"A4 |\
"Em"G>F G<B "D"A2 D2 | "Em"G>F "Em7"E<D "A"E2 "A7"A2 |
"Bm"d>c B<d "F#m"c2 A2 | "G"B>A G<B "F#m"A4 |\
"G"G>A B<G "F#m"A>F D<F | "Em"E<G "A7"F>E "D"D3 :|
A |\
"Bm"d<B B>d "F#m"c>d e>c | "G"B<d d>B "D"A4 |\
"Bm"(3(dcB) "F#m"c>A "G"B<d "F#m"A>F | "Em"E>F G<B "A7"A4 |
"Bm"d<B B>d "F#m"c>d e>c | "G"B<d d>B "D"A4 |\
"Bm"(3(dcB) "F#m"c>A "G"B<d "F#m"A>F | "Em"E<G "A7"F>E "D"D2 A2 |
"Bm"d<B B>d "F#m"c>d e>c | "G"B<d d>B "D"A4 |\
"Bm"d<B "F#m"B>d "G"c>d "F#m"e>c | "Em"d<B c>d "A7"e4 |
"Bm"d<f f>d "F#m"c>d e>c | "G"B<d d>B "F#m"c4 |\
"Bm"(3(dcB) "F#m"(3(cBA) "G"B<d "F#m"A>F | "Em"E<G "A7"F>E "D"D2 |]
